static/assets/images/networks/arbitrum.svg

<svg width="256" height="256" viewBox="0 0 256 256" fill="none" xmlns="http://www.w3.org/2000/svg">
<path fill-rule="evenodd" clip-rule="evenodd" d="M128 256C198.692 256 256 198.692 256 128C256 57.3075 198.692 0 128 0C57.3075 0 0 57.3075 0 128C0 198.692 57.3075 256 128 256ZM120.135 25.11C122.59 23.69 125.345 23 128.1 23C130.855 23 133.61 23.735 136.065 25.155L213.13 69.98C218.035 72.865 221.05 78.115 221.05 83.8L220.75 172.965C220.75 178.645 217.69 183.9 212.74 186.74L135.415 231.04C132.96 232.46 130.205 233.15 127.45 233.15C124.695 233.15 121.94 232.415 119.485 230.995L42.42 186.175C37.515 183.29 34.5 178.04 34.5 172.355L34.8 83.19C34.8 77.505 37.86 72.255 42.81 69.41L120.135 25.11Z" fill="#1B4ADD"/>
<path d="M147.755 61H133.959C132.908 61 132.009 61.6296 131.642 62.632L87.202 184.368C86.884 185.156 87.52 186 88.3578 186H102.154C103.206 186 104.105 185.37 104.472 184.368L148.911 62.632C149.229 61.8435 148.593 61 147.755 61ZM123.588 61H109.792C108.74 61 107.841 61.6296 107.474 62.632L63.0834 184.319C62.7654 185.108 63.4014 185.951 64.2392 185.951H78.0352C79.0871 185.951 79.986 185.322 80.3529 184.319L124.744 62.632C125.062 61.8435 124.481 61 123.588 61ZM141.493 108.158C141.127 107.051 139.543 107.051 139.176 108.158L132.015 127.84C131.807 128.366 131.807 128.995 132.015 129.527L152.024 184.319C152.391 185.266 153.29 185.951 154.342 185.951H168.138C168.982 185.951 169.611 185.108 169.293 184.319L141.493 108.158ZM193.412 184.319L153.553 75.0526C153.186 73.9462 151.602 73.9462 151.235 75.0526L144.074 94.7347C143.866 95.2604 143.866 95.89 144.074 96.4218L176.143 184.319C176.509 185.266 177.408 185.951 178.46 185.951H192.256C193.149 186.006 193.73 185.108 193.412 184.319Z" fill="#1B4ADD"/>
<path fill-rule="evenodd" clip-rule="evenodd" d="M128.1 23C125.345 23 122.59 23.69 120.135 25.11L42.81 69.41C37.86 72.255 34.8 77.505 34.8 83.19L34.5 172.355C34.5 178.04 37.515 183.29 42.42 186.175L119.485 230.995C121.94 232.415 124.695 233.15 127.45 233.15C130.205 233.15 132.96 232.46 135.415 231.04L212.74 186.74C217.69 183.9 220.75 178.645 220.75 172.965L221.05 83.8C221.05 78.115 218.035 72.865 213.13 69.98L136.065 25.155C133.61 23.735 130.855 23 128.1 23ZM133.959 61H147.755C148.593 61 149.229 61.8435 148.911 62.632L104.472 184.368C104.105 185.37 103.206 186 102.154 186H88.3578C87.52 186 86.884 185.156 87.202 184.368L131.642 62.632C132.009 61.6296 132.908 61 133.959 61ZM109.792 61H123.588C124.481 61 125.062 61.8435 124.744 62.632L80.3529 184.319C79.986 185.322 79.0871 185.951 78.0352 185.951H64.2392C63.4014 185.951 62.7654 185.108 63.0834 184.319L107.474 62.632C107.841 61.6296 108.74 61 109.792 61ZM139.176 108.158C139.543 107.051 141.127 107.051 141.493 108.158L169.293 184.319C169.611 185.108 168.982 185.951 168.138 185.951H154.342C153.29 185.951 152.391 185.266 152.024 184.319L132.015 129.527C131.807 128.995 131.807 128.366 132.015 127.84L139.176 108.158ZM153.553 75.0526L193.412 184.319C193.73 185.108 193.149 186.006 192.256 185.951H178.46C177.408 185.951 176.509 185.266 176.143 184.319L144.074 96.4218C143.866 95.89 143.866 95.2604 144.074 94.7347L151.235 75.0526C151.602 73.9462 153.186 73.9462 153.553 75.0526Z" fill="white"/>
</svg>

<svg xmlns="http://www.w3.org/2000/svg" fill="none" viewBox="0 0 256 256"><path fill="#1B4ADD" fill-rule="evenodd" d="M128 256c70.692 0 128-57.308 128-128S198.692 0 128 0 0 57.308 0 128s57.308 128 128 128m-7.865-230.89c2.455-1.42 5.21-2.11 7.965-2.11s5.51.735 7.965 2.155L213.13 69.98a16.03 16.03 0 0 1 7.92 13.82l-.3 89.165c0 5.68-3.06 10.935-8.01 13.775l-77.325 44.3c-2.455 1.42-5.21 2.11-7.965 2.11s-5.51-.735-7.965-2.155l-77.065-44.82a16.03 16.03 0 0 1-7.92-13.82l.3-89.165c0-5.685 3.06-10.935 8.01-13.78z" clip-rule="evenodd"/><path fill="#1B4ADD" d="M147.755 61h-13.796c-1.051 0-1.95.63-2.317 1.632l-44.44 121.736c-.318.788.318 1.632 1.156 1.632h13.796c1.052 0 1.951-.63 2.318-1.632l44.439-121.736c.318-.788-.318-1.632-1.156-1.632m-24.167 0h-13.796c-1.052 0-1.951.63-2.318 1.632l-44.39 121.687c-.319.789.317 1.632 1.155 1.632h13.796c1.052 0 1.951-.629 2.318-1.632l44.391-121.687c.318-.788-.263-1.632-1.156-1.632m17.905 47.158c-.366-1.107-1.95-1.107-2.317 0l-7.161 19.682a2.36 2.36 0 0 0 0 1.687l20.009 54.792c.367.947 1.266 1.632 2.318 1.632h13.796c.844 0 1.473-.843 1.155-1.632zm51.919 76.161L153.553 75.053c-.367-1.107-1.951-1.107-2.318 0l-7.161 19.682a2.36 2.36 0 0 0 0 1.687l32.069 87.897c.366.947 1.265 1.632 2.317 1.632h13.796c.893.055 1.474-.843 1.156-1.632"/><path fill="#fff" fill-rule="evenodd" d="M128.1 23c-2.755 0-5.51.69-7.965 2.11L42.81 69.41c-4.95 2.845-8.01 8.095-8.01 13.78l-.3 89.165a16.03 16.03 0 0 0 7.92 13.82l77.065 44.82a15.93 15.93 0 0 0 7.965 2.155c2.755 0 5.51-.69 7.965-2.11l77.325-44.3c4.95-2.84 8.01-8.095 8.01-13.775l.3-89.165a16.03 16.03 0 0 0-7.92-13.82l-77.065-44.825A15.93 15.93 0 0 0 128.1 23m5.859 38h13.796c.838 0 1.474.843 1.156 1.632l-44.439 121.736c-.367 1.002-1.266 1.632-2.318 1.632H88.358c-.838 0-1.474-.844-1.156-1.632l44.44-121.736c.367-1.002 1.266-1.632 2.317-1.632m-24.167 0h13.796c.893 0 1.474.843 1.156 1.632L80.353 184.319c-.367 1.003-1.266 1.632-2.318 1.632H64.24c-.838 0-1.474-.843-1.156-1.632l44.391-121.687c.367-1.002 1.266-1.632 2.318-1.632m29.384 47.158c.367-1.107 1.951-1.107 2.317 0l27.8 76.161c.318.789-.311 1.632-1.155 1.632h-13.796c-1.052 0-1.951-.685-2.318-1.632l-20.009-54.792a2.36 2.36 0 0 1 0-1.687zm14.377-33.105 39.859 109.266c.318.789-.263 1.687-1.156 1.632H178.46c-1.052 0-1.951-.685-2.317-1.632l-32.069-87.897a2.36 2.36 0 0 1 0-1.687l7.161-19.682c.367-1.107 1.951-1.107 2.318 0" clip-rule="evenodd"/></svg>
